profile_pictures/animals-2/goat_mis.svg

<svg width="64" height="64" viewBox="0 0 64 64" fill="none" xmlns="http://www.w3.org/2000/svg">
<path d="M37.52 52.66C36.6657 54.4944 35.4238 56.1218 33.88 57.43L32 59L30.12 57.43C28.5726 56.1228 27.3273 54.4953 26.47 52.66C27.216 52.8847 27.9909 52.9993 28.77 53H35.23C36.0059 52.9993 36.7774 52.8848 37.52 52.66Z" fill="#AEADB3"/>
<path d="M46 30V36.38C46.0008 37.4539 45.8286 38.5209 45.49 39.54L42.84 47.47V47.53C42.3079 49.1262 41.2861 50.514 39.9198 51.496C38.5536 52.4781 36.9125 53.0043 35.23 53H28.77C27.0909 53.0001 25.4543 52.4719 24.092 51.4902C22.7298 50.5084 21.711 49.1229 21.18 47.53V47.47L18.53 39.54C18.1846 38.522 18.0057 37.455 18 36.38V30C18.0002 28.6702 18.2656 27.3538 18.7807 26.1278C19.2959 24.9018 20.0503 23.7909 21 22.86C21.2 22.67 21.4 22.48 21.62 22.3C23.1455 21.0247 25.0208 20.2404 27 20.05C27.33 20.05 27.66 20 28 20H36C36.34 20 36.67 20 37 20.05C37.3361 20.0842 37.67 20.1376 38 20.21C38.2067 20.25 38.4167 20.3 38.63 20.36H38.75C38.9565 20.4128 39.1601 20.4762 39.36 20.55L39.61 20.65C39.7852 20.7106 39.9557 20.7841 40.12 20.87C40.4399 21.01 40.7506 21.1703 41.05 21.35C41.1991 21.4305 41.3427 21.5207 41.48 21.62C41.7812 21.813 42.0686 22.0269 42.34 22.26C42.56 22.44 42.76 22.63 42.96 22.82C43.9217 23.7522 44.6864 24.8681 45.2086 26.1015C45.7308 27.3349 45.9999 28.6606 46 30Z" fill="#EAEAEA"/>
<path d="M53 5.92999C52.9971 6.10382 52.946 6.27342 52.8524 6.41995C52.7588 6.56648 52.6265 6.68419 52.47 6.75999C49.9325 8.01404 47.7482 9.88184 46.1155 12.1939C44.4827 14.506 43.4531 17.1892 43.12 20C43.0393 20.6636 42.9992 21.3315 43 22V22.86C42.8 22.67 42.6 22.48 42.38 22.3C42.1086 22.0669 41.8212 21.853 41.52 21.66C41.3827 21.5607 41.2391 21.4705 41.09 21.39C40.7906 21.2103 40.4799 21.0499 40.16 20.91C39.9957 20.8241 39.8252 20.7506 39.65 20.69L39.4 20.59C39.2001 20.5162 38.9965 20.4527 38.79 20.4H38.67C38.4633 20.34 38.2533 20.29 38.04 20.25C37.71 20.1776 37.3761 20.1241 37.04 20.09C36.71 20.09 36.38 20.04 36.04 20.04H35.16C35.6398 15.9065 37.6189 12.0925 40.7226 9.32059C43.8262 6.54868 47.8388 5.01141 52 4.99999H52.07C52.3167 4.99999 52.5532 5.09797 52.7276 5.27238C52.902 5.44679 53 5.68334 53 5.92999ZM28.88 20H28C27.66 20 27.33 20 27 20.05C25.0243 20.2423 23.1527 21.0265 21.63 22.3C21.41 22.48 21.21 22.67 21.01 22.86V22C21.0108 21.3315 20.9707 20.6636 20.89 20C20.5559 17.1882 19.5248 14.5043 17.8902 12.1922C16.2556 9.88001 14.0694 8.01277 11.53 6.75999C11.3355 6.67332 11.1771 6.52185 11.0817 6.33142C10.9864 6.141 10.9601 5.9234 11.0073 5.71574C11.0545 5.50809 11.1723 5.32323 11.3405 5.19271C11.5088 5.06218 11.7171 4.99407 11.93 4.99999H12C16.162 5.00046 20.1792 6.52774 23.2904 9.29237C26.4015 12.057 28.3904 15.8669 28.88 20Z" fill="#464548"/>
<path d="M32 54C31.7348 54 31.4804 53.8947 31.2929 53.7071C31.1054 53.5196 31 53.2652 31 53V48C31 47.7348 31.1054 47.4804 31.2929 47.2929C31.4804 47.1054 31.7348 47 32 47C32.2652 47 32.5196 47.1054 32.7071 47.2929C32.8946 47.4804 33 47.7348 33 48V53C33 53.2652 32.8946 53.5196 32.7071 53.7071C32.5196 53.8947 32.2652 54 32 54ZM21 22.07V22.86C20.0503 23.7909 19.2959 24.9018 18.7807 26.1278C18.2656 27.3538 18.0002 28.6702 18 30V36.33C16.4708 37.6417 14.503 38.3281 12.4897 38.2521C10.4764 38.1761 8.56596 37.3433 7.14 35.92L21 22.07ZM56.86 35.92C55.434 37.3433 53.5236 38.1761 51.5103 38.2521C49.497 38.3281 47.5292 37.6417 46 36.33V30C45.9998 28.6702 45.7344 27.3538 45.2193 26.1278C44.7041 24.9018 43.9497 23.7909 43 22.86V22.07L56.86 35.92Z" fill="#AEADB3"/>
<path d="M35 45.49C34.9983 45.6819 34.961 45.8717 34.89 46.05C34.7648 46.3722 34.5315 46.6409 34.23 46.81L32 48L29.77 46.81C29.4685 46.6409 29.2352 46.3722 29.11 46.05C29.039 45.8717 29.0017 45.6819 29 45.49C28.9933 45.3009 29.024 45.1123 29.0902 44.935C29.1565 44.7577 29.2571 44.5953 29.3861 44.4569C29.5152 44.3185 29.6703 44.2069 29.8426 44.1285C30.0148 44.0501 30.2009 44.0065 30.39 44H33.61C33.7991 44.0065 33.9852 44.0501 34.1574 44.1285C34.3296 44.2069 34.4848 44.3185 34.6139 44.4569C34.7429 44.5953 34.8435 44.7577 34.9098 44.935C34.976 45.1123 35.0067 45.3009 35 45.49Z" fill="#3E2C27"/>
<path d="M38.5 37C39.3284 37 40 36.3284 40 35.5C40 34.6716 39.3284 34 38.5 34C37.6716 34 37 34.6716 37 35.5C37 36.3284 37.6716 37 38.5 37Z" fill="#2D2D2D"/>
<path d="M25.5 37C26.3284 37 27 36.3284 27 35.5C27 34.6716 26.3284 34 25.5 34C24.6716 34 24 34.6716 24 35.5C24 36.3284 24.6716 37 25.5 37Z" fill="#2D2D2D"/>
</svg>

<svg xmlns="http://www.w3.org/2000/svg" viewBox="0 0 64 64"><path fill="#aeadb3" d="M37.52,52.66a14,14,0,0,1-3.64,4.77L32,59l-1.88-1.57a14,14,0,0,1-3.65-4.77,8,8,0,0,0,2.3.34h6.46A7.93,7.93,0,0,0,37.52,52.66Z"/><path fill="#d8d9dd" d="M46,30v6.38a10,10,0,0,1-.51,3.16l-2.65,7.93,0,.06A8,8,0,0,1,35.23,53H28.77a8,8,0,0,1-7.59-5.47l0-.06-2.65-7.93A10,10,0,0,1,18,36.38V30a10,10,0,0,1,3-7.14c.2-.19.4-.38.62-.56h0A9.86,9.86,0,0,1,27,20.05c.33,0,.66-.05,1-.05h8c.34,0,.67,0,1,.05a8.83,8.83,0,0,1,1,.16q.31.06.63.15l.12,0a6.17,6.17,0,0,1,.61.19l.25.1a3.74,3.74,0,0,1,.51.22,8.17,8.17,0,0,1,.93.48,3.87,3.87,0,0,1,.43.27,7.67,7.67,0,0,1,.86.64h0c.22.18.42.37.62.56A10,10,0,0,1,46,30Z"/><path fill="#464548" d="M53 5.93a.94.94 0 0 1-.53.83A17 17 0 0 0 43.12 20 16.4 16.4 0 0 0 43 22v.86c-.2-.19-.4-.38-.62-.56h0a7.67 7.67 0 0 0-.86-.64 3.87 3.87 0 0 0-.43-.27 8.17 8.17 0 0 0-.93-.48 3.74 3.74 0 0 0-.51-.22l-.25-.1a6.17 6.17 0 0 0-.61-.19l-.12 0q-.31-.09-.63-.15a8.83 8.83 0 0 0-1-.16c-.33 0-.66-.05-1-.05h-.88A17 17 0 0 1 52 5h.07A.93.93 0 0 1 53 5.93zM28.88 20H28c-.34 0-.67 0-1 .05a9.86 9.86 0 0 0-5.37 2.25h0c-.22.18-.42.37-.62.56V22a16.4 16.4 0 0 0-.12-2A17 17 0 0 0 11.53 6.76.92.92 0 0 1 11.93 5H12A17 17 0 0 1 28.88 20z"/><path fill="#aeadb3" d="M32 54a1 1 0 0 1-1-1V48a1 1 0 0 1 2 0v5A1 1 0 0 1 32 54zM21 22.07v.79A10 10 0 0 0 18 30v6.33a8 8 0 0 1-10.86-.41zM56.86 35.92A8 8 0 0 1 46 36.33V30a10 10 0 0 0-3-7.14v-.79z"/><path fill="#3e2c27" d="M35,45.49a1.55,1.55,0,0,1-.11.56,1.49,1.49,0,0,1-.66.76L32,48l-2.23-1.19a1.49,1.49,0,0,1-.66-.76,1.55,1.55,0,0,1-.11-.56A1.44,1.44,0,0,1,30.39,44h3.22A1.44,1.44,0,0,1,35,45.49Z"/><circle cx="38.5" cy="35.5" r="1.5" fill="#2d2d2d"/><circle cx="25.5" cy="35.5" r="1.5" fill="#2d2d2d"/></svg>
